resources/svg/regular/grid-small.svg

<svg xmlns="http://www.w3.org/2000/svg" fill="currentColor" stroke="none" viewBox="0 0 24 24"><path d="M7 7h4v4H7zm0 6h4v4H7zm6-6h4v4h-4zm0 6h4v4h-4z"/></svg>

<svg xmlns="http://www.w3.org/2000/svg" fill="currentColor" stroke="none" viewBox="0 0 24 24"><path d="M7 7H11V11H7zM7 13H11V17H7zM13 7H17V11H13zM13 13H17V17H13z"/></svg>
